icons/camera-off.svg

<svg width="24" height="24" viewBox="0 0 24 24" fill="none" xmlns="http://www.w3.org/2000/svg">
<g clip-path="url(#clip0)">
<path fill-rule="evenodd" clip-rule="evenodd" d="M0.292893 0.292893C0.683417 -0.0976311 1.31658 -0.0976311 1.70711 0.292893L23.7071 22.2929C24.0976 22.6834 24.0976 23.3166 23.7071 23.7071C23.3166 24.0976 22.6834 24.0976 22.2929 23.7071L19.5858 21H2C1.44772 21 1 20.5523 1 20V7C1 6.44772 1.44772 6 2 6H4.58579L0.292893 1.70711C-0.0976311 1.31658 -0.0976311 0.683417 0.292893 0.292893ZM6.46914 7.88335C6.32923 7.95781 6.16954 8 6 8H3V19H17.5858L14.6137 16.0279C13.9132 16.633 12.9997 17 12 17C9.79086 17 8 15.2091 8 13C8 12.0003 8.36703 11.0868 8.97212 10.3863L6.46914 7.88335ZM10.3937 11.8079C10.1459 12.1413 10 12.5538 10 13C10 14.1046 10.8954 15 12 15C12.4462 15 12.8587 14.8541 13.1921 14.6063L10.3937 11.8079ZM8 4C8 3.44772 8.44772 3 9 3H15C15.2652 3 15.5196 3.10536 15.7071 3.29289L18.4142 6H22C22.5523 6 23 6.44772 23 7V17C23 17.5523 22.5523 18 22 18C21.4477 18 21 17.5523 21 17V8H18C17.7348 8 17.4804 7.89464 17.2929 7.70711L14.5858 5H9C8.44772 5 8 4.55228 8 4Z" fill="black"/>
</g>
<defs>
<clipPath id="clip0">
<rect width="24" height="24" fill="white"/>
</clipPath>
</defs>
</svg>

<svg
  width="24"
  height="24"
  viewBox="0 0 24 24"
  xmlns="http://www.w3.org/2000/svg"
>
  <g clip-path="url(#a)">
    <path
      fill-rule="evenodd"
      clip-rule="evenodd"
      d="M.293.293a1 1 0 0 1 1.414 0l22 22a1 1 0 0 1-1.414 1.414L19.586 21H2a1 1 0 0 1-1-1V7a1 1 0 0 1 1-1h2.586L.293 1.707a1 1 0 0 1 0-1.414zm6.176 7.59A.996.996 0 0 1 6 8H3v11h14.586l-2.972-2.972a4 4 0 0 1-5.642-5.642L6.47 7.883zm3.925 3.925a2 2 0 0 0 2.798 2.798l-2.798-2.798zM8 4a1 1 0 0 1 1-1h6a1 1 0 0 1 .707.293L18.414 6H22a1 1 0 0 1 1 1v10a1 1 0 1 1-2 0V8h-3a1 1 0 0 1-.707-.293L14.586 5H9a1 1 0 0 1-1-1z"
    />
  </g>
  <defs>
    <clipPath id="a">
      <rect width="24" height="24" />
    </clipPath>
  </defs>
</svg>
